; generated by PrusaSlicer 2.0.0+win64 on 2020-04-24 at 20:55:02

; 

; external perimeters extrusion width = 0.45mm
; perimeters extrusion width = 0.45mm
; infill extrusion width = 0.45mm
; solid infill extrusion width = 0.45mm
; top infill extrusion width = 0.40mm
; first layer extrusion width = 0.42mm

M73 P0 R97
M73 Q0 S97
M201 X1000 Y1000 Z1000 E5000 ; sets maximum accelerations, mm/sec^2
M203 X200 Y200 Z12 E120 ; sets maximum feedrates, mm/sec
M204 P1250 R1250 T1250 ; sets acceleration (P, T) and retract acceleration (R), mm/sec^2
M205 X8.00 Y8.00 Z0.40 E1.50 ; sets the jerk limits, mm/sec
M205 S0 T0 ; sets the minimum extruding and travel feed rate, mm/sec
M107
M115 U3.8.1 ; tell printer latest fw version
G90 ; use absolute coordinates
M83 ; extruder relative mode
M104 S215 ; set extruder temp
M140 S60 ; set bed temp
M190 S60 ; wait for bed temp
M109 S215 ; wait for extruder temp
G28 W ; home all without mesh bed level
G80 ; mesh bed leveling
G1 Y-3.0 F1000.0 ; go outside print area
G92 E0.0
G1 X60.0 E9.0 F1000.0 ; intro line
M73 Q0 S97
M73 P0 R97
G1 X100.0 E12.5 F1000.0 ; intro line
G92 E0.0
M221 S95
M900 K30 ; Filament gcode
G21 ; set units to millimeters
G90 ; use absolute coordinates
M83 ; use relative distances for extrusion
;BEFORE_LAYER_CHANGE
G92 E0.0
;0.2


G1 E-0.80000 F2100.00000
G1 Z0.600 F10800.000
;AFTER_LAYER_CHANGE
;0.2
G1 X81.826 Y62.446
G1 Z0.200
G1 E0.80000 F2100.00000
M204 S1000
G1 F1200
G1 X82.663 Y61.650 E0.03620
G1 X83.405 Y61.141 E0.02822
G1 X84.214 Y60.755 E0.02810
G1 X85.378 Y60.414 E0.03803
G1 X86.444 Y60.312 E0.03359
G1 X163.504 Y60.311 E2.41614
G1 X164.581 Y60.407 E0.03391
G1 X165.647 Y60.696 E0.03462
G1 X166.628 Y61.161 E0.03405
G1 X167.604 Y61.874 E0.03792
G1 X168.356 Y62.672 E0.03437
G1 X168.859 Y63.405 E0.02787
G1 X169.245 Y64.214 E0.02810
G1 X169.584 Y65.371 E0.03780
G1 X169.685 Y66.382 E0.03188
G1 X169.688 Y143.540 E2.41924
G1 X169.593 Y144.585 E0.03288
G1 X169.307 Y145.640 E0.03428
G1 X168.847 Y146.616 E0.03382
G1 X168.174 Y147.554 E0.03621
G1 X167.337 Y148.350 E0.03620
G1 X166.595 Y148.859 E0.02822
G1 X165.780 Y149.248 E0.02833
G1 X164.611 Y149.588 E0.03814
G1 X163.516 Y149.688 E0.03451
G1 X86.460 Y149.688 E2.41603
G1 X85.415 Y149.593 E0.03288
G1 X84.360 Y149.307 E0.03428
G1 X83.384 Y148.847 E0.03382
G1 X82.446 Y148.174 E0.03621
G1 X81.650 Y147.337 E0.03620
G1 X81.141 Y146.595 E0.02822
G1 X80.752 Y145.780 E0.02833
G1 X80.412 Y144.611 E0.03814
G1 X80.312 Y143.516 E0.03451
G1 X80.312 Y66.460 E2.41603
G1 X80.407 Y65.415 E0.03288
G1 X80.693 Y64.360 E0.03428
G1 X81.153 Y63.384 E0.03382
G1 X81.791 Y62.495 E0.03433
G1 F8640
G1 X82.663 Y61.650 E-0.28021
G1 X83.405 Y61.141 E-0.20780
G1 X84.214 Y60.755 E-0.20695
G1 X84.484 Y60.676 E-0.06504
G1 E-0.04000 F2100.00000
G1 Z0.800 F10800.000
G1 X118.224 Y88.727
G1 Z0.200
G1 E0.80000 F2100.00000
G1 F1200
G1 X118.513 Y88.724 E0.00907
G1 X118.535 Y88.702 E0.00096
G1 X118.590 Y88.548 E0.00515
G1 X118.733 Y88.392 E0.00663
G1 X118.833 Y88.111 E0.00933
G1 X118.873 Y88.091 E0.00141
G1 X118.885 Y88.048 E0.00139
G1 X119.045 Y87.878 E0.00732
G1 X119.105 Y87.723 E0.00522
G1 X119.247 Y87.571 E0.00653
G1 X119.313 Y87.399 E0.00578
G1 X119.425 Y87.254 E0.00572
G1 X119.366 Y87.086 E0.00561
G1 X119.691 Y86.805 E0.01347
G1 X120.007 Y86.330 E0.01789
G1 X120.080 Y86.168 E0.00557
G1 X120.265 Y85.919 E0.00971
G1 X120.363 Y85.657 E0.00879
G1 X120.525 Y85.480 E0.00753
G1 X120.724 Y85.197 E0.01084
G1 X120.930 Y84.827 E0.01329
G1 X121.033 Y84.726 E0.00451
G1 X121.061 Y84.638 E0.00291
G1 X121.207 Y84.436 E0.00781
G1 X121.274 Y84.235 E0.00667
G1 X121.330 Y84.192 E0.00218
G1 X121.365 Y84.046 E0.00471
G1 X121.501 Y83.928 E0.00566
G1 X121.637 Y83.671 E0.00911
G1 X121.752 Y83.545 E0.00534
G1 X121.999 Y83.097 E0.01605
G1 X122.384 Y82.487 E0.02262
G1 X122.494 Y82.351 E0.00549
G1 X122.559 Y82.182 E0.00567
G1 X122.687 Y82.048 E0.00583
G1 X122.753 Y81.827 E0.00721
G1 X122.824 Y81.781 E0.00265
G1 X122.852 Y81.695 E0.00285
G1 X122.999 Y81.536 E0.00677
G1 X123.056 Y81.371 E0.00547
G1 X123.227 Y81.204 E0.00750
G1 X123.398 Y80.894 E0.01110
G1 X123.482 Y80.789 E0.00420
G1 X123.582 Y80.499 E0.00965
G1 X123.682 Y80.422 E0.00396
G1 X123.770 Y80.247 E0.00613
G1 X123.844 Y80.174 E0.00326
G1 X124.105 Y79.785 E0.01470
G1 X124.238 Y79.407 E0.01258
G1 X124.334 Y79.355 E0.00341
G1 X124.463 Y79.174 E0.00696
G1 X124.698 Y78.976 E0.00965
G1 X125.053 Y78.863 E0.01168
G1 X125.481 Y79.002 E0.01414
G1 X125.725 Y79.254 E0.01099
G1 X126.120 Y79.929 E0.02453
G1 X126.308 Y80.139 E0.00883
G1 X126.632 Y80.279 E0.01107
G1 X126.551 Y80.548 E0.00880
G1 X126.734 Y80.900 E0.01244
G1 X126.874 Y80.977 E0.00499
G1 X126.952 Y81.293 E0.01021
G1 X127.079 Y81.431 E0.00587
G1 X127.128 Y81.538 E0.00371
G1 X127.296 Y81.770 E0.00896
G1 X127.382 Y81.825 E0.00319
G1 X127.448 Y82.046 E0.00725
G1 X127.572 Y82.176 E0.00562
G1 X127.646 Y82.359 E0.00620
G1 X127.803 Y82.575 E0.00836
G1 X127.875 Y82.620 E0.00268
G1 X127.953 Y82.839 E0.00726
G1 X128.080 Y82.996 E0.00634
G1 X128.119 Y83.079 E0.00290
G1 X128.260 Y83.152 E0.00495
G1 X128.297 Y83.264 E0.00371
G1 X128.463 Y83.317 E0.00549
G1 X128.485 Y83.693 E0.01179
G1 X128.529 Y83.733 E0.00188
G1 X128.628 Y83.919 E0.00660
G1 X128.760 Y84.015 E0.00513
G1 X128.804 Y84.191 E0.00569
G1 X128.861 Y84.235 E0.00226
G1 X128.928 Y84.435 E0.00662
G1 X129.072 Y84.631 E0.00763
G1 X129.097 Y84.709 E0.00259
G1 X129.191 Y84.799 E0.00406
G1 X129.602 Y85.474 E0.02478
G1 X129.755 Y85.622 E0.00669
G1 X129.867 Y85.911 E0.00970
G1 X130.080 Y86.182 E0.01082
G1 X130.133 Y86.321 E0.00466
G1 X130.263 Y86.487 E0.00663
G1 X130.428 Y86.793 E0.01088
G1 X130.599 Y86.969 E0.00771
G1 X130.653 Y87.154 E0.00605
G1 X130.779 Y87.298 E0.00598
G1 X130.893 Y87.568 E0.00921
G1 X131.042 Y87.756 E0.00751
G1 X131.089 Y87.877 E0.00407
G1 X131.250 Y88.046 E0.00731
G1 X131.276 Y88.134 E0.00288
G1 X131.393 Y88.328 E0.00712
G1 X131.415 Y88.403 E0.00244
G1 X131.539 Y88.536 E0.00570
G1 X131.599 Y88.692 E0.00523
G1 X131.634 Y88.729 E0.00161
G1 X131.829 Y88.734 E0.00613
G1 X131.939 Y89.210 E0.01530
G1 X132.049 Y89.347 E0.00553
G1 X132.093 Y89.451 E0.00353
G1 X132.259 Y89.608 E0.00716
G1 X132.288 Y89.701 E0.00305
G1 X132.422 Y89.925 E0.00819
G1 X132.449 Y90.060 E0.00432
G1 X132.700 Y90.374 E0.01259
G1 X132.754 Y90.498 E0.00424
G1 X132.814 Y90.532 E0.00217
G1 X132.920 Y90.765 E0.00804
G1 X133.038 Y90.864 E0.00482
G1 X133.091 Y91.054 E0.00619
G1 X133.227 Y91.193 E0.00611
G1 X133.392 Y91.555 E0.01246
G1 X133.505 Y91.638 E0.00440
G1 X133.582 Y91.850 E0.00709
G1 X133.735 Y92.005 E0.00683
G1 X133.765 Y92.103 E0.00321
G1 X133.839 Y92.157 E0.00288
G1 X133.902 Y92.365 E0.00681
G1 X134.034 Y92.510 E0.00616
G1 X134.089 Y92.664 E0.00511
G1 X134.241 Y92.814 E0.00670
G1 X134.257 Y92.863 E0.00162
G1 X134.467 Y92.972 E0.00743
G1 X134.437 Y93.234 E0.00829
G1 X134.696 Y93.570 E0.01327
G1 X134.833 Y93.830 E0.00923
G1 X134.857 Y93.921 E0.00295
G1 X135.032 Y94.135 E0.00867
G1 X135.097 Y94.276 E0.00487
G1 X135.285 Y94.545 E0.01027
G1 X135.354 Y94.728 E0.00614
G1 X135.488 Y94.859 E0.00588
G1 X135.555 Y95.015 E0.00531
G1 X135.678 Y95.166 E0.00609
G1 X135.859 Y95.501 E0.01195
G1 X136.012 Y95.685 E0.00752
G1 X136.069 Y95.813 E0.00440
G1 X136.233 Y96.034 E0.00860
G1 X136.315 Y96.082 E0.00300
G1 X136.398 Y96.347 E0.00870
G1 X136.681 Y96.757 E0.01562
G1 X137.209 Y97.626 E0.03187
G1 X137.289 Y97.680 E0.00304
G1 X137.355 Y97.899 E0.00719
G1 X137.483 Y98.035 E0.00585
G1 X137.542 Y98.190 E0.00520
G1 X137.702 Y98.361 E0.00732
G1 X137.728 Y98.447 E0.00281
G1 X137.845 Y98.641 E0.00712
G1 X137.867 Y98.717 E0.00249
G1 X137.999 Y98.860 E0.00609
G1 X138.045 Y98.994 E0.00446
G1 X138.142 Y99.088 E0.00422
G1 X138.348 Y99.465 E0.01346
G1 X138.527 Y99.691 E0.00904
G1 X138.554 Y99.776 E0.00279
G1 X138.614 Y99.837 E0.00270
G1 X138.922 Y100.408 E0.02034
G1 X139.148 Y100.693 E0.01142
G1 X139.466 Y101.272 E0.02069
G1 X139.694 Y101.587 E0.01218
G1 X139.779 Y101.645 E0.00324
G1 X139.845 Y101.865 E0.00721
G1 X139.978 Y102.010 E0.00616
G1 X140.033 Y102.163 E0.00511
G1 X140.186 Y102.315 E0.00676
G1 X140.201 Y102.363 E0.00158
G1 X140.243 Y102.385 E0.00149
G1 X140.343 Y102.667 E0.00938
G1 X140.497 Y102.835 E0.00715
G1 X140.528 Y102.937 E0.00336
G1 X140.582 Y102.981 E0.00218
G1 X140.670 Y103.193 E0.00721
G1 X140.722 Y103.240 E0.00219
G1 X140.834 Y103.451 E0.00751
G1 X140.941 Y103.545 E0.00446
G1 X141.051 Y103.767 E0.00777
G1 X141.256 Y103.953 E0.00866
G1 X141.260 Y104.117 E0.00514
G1 X141.322 Y104.231 E0.00407
G1 X141.451 Y104.319 E0.00489
G1 X141.526 Y104.573 E0.00831
G1 X141.728 Y104.835 E0.01037
G1 X141.789 Y105.008 E0.00574
G1 X141.948 Y105.165 E0.00700
G1 X142.014 Y105.335 E0.00574
G1 X142.131 Y105.483 E0.00589
G1 X142.301 Y105.791 E0.01104
G1 X142.472 Y105.958 E0.00750
G1 X142.529 Y106.123 E0.00547
G1 X142.681 Y106.287 E0.00701
G1 X142.705 Y106.369 E0.00269
G1 X142.774 Y106.417 E0.00261
G1 X142.850 Y106.659 E0.00797
G1 X142.987 Y106.847 E0.00729
G1 X143.007 Y106.903 E0.00187
G1 X143.186 Y107.074 E0.00776
G1 X143.219 Y107.189 E0.00376
G1 X143.279 Y107.232 E0.00232
G1 X143.349 Y107.440 E0.00688
G1 X143.495 Y107.616 E0.00717
G1 X143.533 Y107.737 E0.00398
G1 X143.654 Y107.845 E0.00509
G1 X143.685 Y107.965 E0.00387
G1 X143.747 Y108.012 E0.00243
G1 X143.806 Y108.210 E0.00646
G1 X143.934 Y108.345 E0.00584
G1 X144.001 Y108.519 E0.00587
G1 X144.212 Y108.790 E0.01075
G1 X144.294 Y109.004 E0.00721
G1 X144.412 Y109.122 E0.00521
G1 X144.640 Y109.107 E0.00716
G1 X144.755 Y109.696 E0.01881
G1 X144.804 Y109.789 E0.00329
G1 X144.964 Y109.979 E0.00780
G1 X145.007 Y110.090 E0.00372
G1 X145.179 Y110.263 E0.00766
G1 X145.221 Y110.439 E0.00566
G1 X145.260 Y110.477 E0.00171
G1 X145.315 Y110.612 E0.00456
G1 X145.391 Y110.665 E0.00293
G1 X145.487 Y110.893 E0.00773
G1 X145.712 Y111.189 E0.01165
G1 X145.772 Y111.355 E0.00554
G1 X145.914 Y111.495 E0.00626
G1 X145.984 Y111.684 E0.00633
G1 X146.097 Y111.821 E0.00556
G1 X146.199 Y111.861 E0.00343
G1 X146.277 Y112.143 E0.00916
G1 X146.454 Y112.422 E0.01038
G1 X146.654 Y112.669 E0.00995
G1 X146.674 Y112.737 E0.00222
G1 X146.762 Y112.803 E0.00348
G1 X146.801 Y112.978 E0.00562
G1 X146.964 Y113.250 E0.00993
G1 X147.088 Y113.367 E0.00535
G1 X147.548 Y114.171 E0.02903
G1 X147.925 Y114.755 E0.02180
G1 X147.948 Y114.830 E0.00244
G1 X148.120 Y115.010 E0.00780
G1 X148.152 Y115.126 E0.00379
G1 X148.216 Y115.176 E0.00255
G1 X148.270 Y115.351 E0.00572
G1 X148.398 Y115.472 E0.00553
G1 X148.464 Y115.644 E0.00579
G1 X148.571 Y115.776 E0.00531
G1 X148.742 Y116.079 E0.01091
G1 X148.923 Y116.303 E0.00905
G1 X148.969 Y116.421 E0.00394
G1 X149.110 Y116.562 E0.00627
G1 X149.233 Y116.871 E0.01042
G1 X149.598 Y117.383 E0.01972
G1 X149.777 Y117.706 E0.01158
G1 X149.893 Y117.846 E0.00569
G1 X149.949 Y118.013 E0.00554
G1 X150.101 Y118.178 E0.00704
G1 X150.129 Y118.278 E0.00324
G1 X150.203 Y118.341 E0.00306
G1 X150.258 Y118.524 E0.00599
G1 X150.386 Y118.660 E0.00585
G1 X150.443 Y118.808 E0.00497
G1 X150.579 Y118.947 E0.00611
G1 X150.735 Y119.314 E0.01250
G1 X150.932 Y119.589 E0.01059
G1 X151.048 Y119.925 E0.01115
G1 X151.069 Y120.800 E0.02747
G1 X141.098 Y120.800 E0.31265
G1 X141.098 Y124.367 E0.11183
G1 X134.539 Y124.367 E0.20565
G1 X134.539 Y120.800 E0.11183
G1 X115.698 Y120.800 E0.59075
G1 X115.698 Y124.367 E0.11183
G1 X109.139 Y124.367 E0.20565
G1 X109.139 Y120.800 E0.11183
G1 X98.985 Y120.800 E0.31838
G1 X99.107 Y119.890 E0.02879
G1 X99.198 Y119.577 E0.01024
G1 X99.361 Y119.358 E0.00854
G1 X99.437 Y119.121 E0.00782
G1 X99.504 Y119.073 E0.00257
G1 X99.530 Y118.985 E0.00288
G1 X99.690 Y118.815 E0.00732
G1 X99.750 Y118.660 E0.00520
G1 X99.877 Y118.524 E0.00585
G1 X99.932 Y118.341 E0.00599
G1 X100.006 Y118.278 E0.00306
G1 X100.034 Y118.179 E0.00321
G1 X100.180 Y118.020 E0.00677
G1 X100.286 Y117.664 E0.01165
G1 X100.408 Y117.632 E0.00395
G1 X100.460 Y117.531 E0.00356
G1 X100.467 Y117.451 E0.00250
G1 X100.646 Y117.253 E0.00836
G1 X100.702 Y117.085 E0.00557
G1 X100.875 Y116.917 E0.00756
G1 X101.045 Y116.607 E0.01108
G1 X101.157 Y116.467 E0.00561
G1 X101.204 Y116.338 E0.00432
G1 X101.372 Y116.129 E0.00838
G1 X101.554 Y115.791 E0.01205
G1 X101.630 Y115.698 E0.00377
G1 X101.673 Y115.243 E0.01431
G1 X101.909 Y115.219 E0.00743
G1 X101.929 Y115.161 E0.00194
G1 X101.986 Y115.118 E0.00223
G1 X102.018 Y115.001 E0.00381
G1 X102.185 Y114.836 E0.00738
G1 X102.244 Y114.688 E0.00499
G1 X102.385 Y114.545 E0.00630
G1 X102.488 Y114.276 E0.00902
G1 X102.690 Y113.996 E0.01082
G1 X102.721 Y113.874 E0.00394
G1 X102.850 Y113.753 E0.00557
G1 X103.080 Y113.330 E0.01508
G1 X103.311 Y113.042 E0.01157
G1 X103.357 Y112.897 E0.00477
G1 X103.464 Y112.731 E0.00621
G1 X103.493 Y112.635 E0.00312
G1 X103.652 Y112.465 E0.00732
G1 X103.712 Y112.310 E0.00520
G1 X103.840 Y112.174 E0.00585
G1 X103.901 Y111.969 E0.00671
G1 X103.975 Y111.915 E0.00288
G1 X104.008 Y111.808 E0.00350
G1 X104.168 Y111.656 E0.00690
G1 X104.206 Y111.557 E0.00336
G1 X104.372 Y111.353 E0.00823
G1 X104.656 Y110.834 E0.01856
G1 X104.850 Y110.598 E0.00957
G1 X104.876 Y110.535 E0.00216
G1 X104.885 Y110.050 E0.01520
G1 X105.154 Y109.993 E0.00864
G1 X105.194 Y109.866 E0.00419
G1 X105.277 Y109.812 E0.00311
G1 X105.260 Y109.448 E0.01141
G1 X105.541 Y109.386 E0.00902
G1 X105.645 Y109.288 E0.00449
G1 X105.705 Y109.143 E0.00494
G1 X105.839 Y109.016 E0.00579
G1 X105.918 Y108.799 E0.00724
G1 X106.134 Y108.520 E0.01108
G1 X106.201 Y108.345 E0.00588
G1 X106.329 Y108.210 E0.00584
G1 X106.387 Y108.017 E0.00632
G1 X106.450 Y107.968 E0.00249
G1 X106.509 Y107.738 E0.00744
G1 X106.639 Y107.669 E0.00461
G1 X106.736 Y107.524 E0.00546
G1 X106.704 Y107.387 E0.00442
G1 X106.908 Y107.216 E0.00834
G1 X106.918 Y107.101 E0.00363
G1 X107.128 Y106.908 E0.00892
G1 X107.310 Y106.618 E0.01074
G1 X107.394 Y106.320 E0.00970
G1 X107.495 Y106.281 E0.00339
G1 X107.613 Y106.127 E0.00611
G1 X107.668 Y106.005 E0.00418
G1 X107.829 Y105.803 E0.00811
G1 X108.054 Y105.397 E0.01455
G1 X108.151 Y105.276 E0.00486
G1 X108.186 Y105.184 E0.00308
G1 X108.331 Y105.041 E0.00639
G1 X108.414 Y104.825 E0.00726
G1 X108.607 Y104.582 E0.00974
G1 X108.675 Y104.272 E0.00995
G1 X108.812 Y104.210 E0.00472
G1 X108.944 Y103.816 E0.01303
G1 X109.121 Y103.707 E0.00652
G1 X109.197 Y103.570 E0.00491
G1 X109.287 Y103.468 E0.00425
G1 X109.441 Y103.172 E0.01047
G1 X109.775 Y102.698 E0.01817
G1 X109.788 Y102.634 E0.00204
G1 X109.923 Y102.393 E0.00867
G1 X109.944 Y102.323 E0.00230
G1 X110.104 Y102.153 E0.00732
G1 X110.164 Y101.998 E0.00520
G1 X110.291 Y101.862 E0.00585
G1 X110.359 Y101.637 E0.00737
G1 X110.444 Y101.582 E0.00319
G1 X110.616 Y101.345 E0.00916
G1 X110.677 Y101.217 E0.00445
G1 X110.809 Y101.054 E0.00658
G1 X110.916 Y100.791 E0.00890
G1 X111.111 Y100.553 E0.00965
G1 X111.260 Y100.205 E0.01187
G1 X111.330 Y100.191 E0.00224
G1 X111.378 Y99.992 E0.00641
G1 X111.581 Y99.762 E0.00961
G1 X111.674 Y99.545 E0.00739
G1 X111.770 Y99.449 E0.00426
G1 X111.928 Y99.147 E0.01071
G1 X112.127 Y98.935 E0.00911
G1 X112.273 Y98.709 E0.00843
G1 X112.311 Y98.536 E0.00555
G1 X112.403 Y98.464 E0.00368
G1 X112.434 Y98.361 E0.00338
G1 X112.593 Y98.190 E0.00732
G1 X112.653 Y98.035 E0.00520
G1 X112.780 Y97.899 E0.00585
G1 X112.839 Y97.704 E0.00639
G1 X112.906 Y97.651 E0.00268
G1 X113.001 Y97.313 E0.01101
G1 X113.131 Y97.289 E0.00415
G1 X113.178 Y97.197 E0.00324
G1 X113.315 Y97.058 E0.00614
G1 X113.404 Y96.840 E0.00738
G1 X113.544 Y96.662 E0.00710
G1 X113.626 Y96.464 E0.00672
G1 X113.625 Y96.328 E0.00426
G1 X113.770 Y96.243 E0.00527
G1 X113.932 Y95.974 E0.00984
G1 X114.065 Y95.814 E0.00652
G1 X114.125 Y95.680 E0.00461
G1 X114.264 Y95.522 E0.00659
G1 X114.334 Y95.391 E0.00466
G1 X114.391 Y95.176 E0.00698
G1 X114.594 Y94.983 E0.00876
G1 X114.651 Y94.858 E0.00433
G1 X114.782 Y94.728 E0.00577
G1 X114.865 Y94.514 E0.00722
G1 X115.073 Y94.249 E0.01055
G1 X115.116 Y94.133 E0.00389
G1 X115.204 Y94.006 E0.00484
G1 X115.250 Y93.816 E0.00615
G1 X115.410 Y93.647 E0.00729
G1 X115.713 Y93.174 E0.01759
G1 X115.759 Y92.942 E0.00743
G1 X115.865 Y92.881 E0.00381
G1 X115.887 Y92.802 E0.00260
G1 X116.054 Y92.636 E0.00738
G1 X116.109 Y92.496 E0.00473
G1 X116.232 Y92.365 E0.00560
G1 X116.253 Y92.291 E0.00242
G1 X116.370 Y92.096 E0.00712
