; generated by PrusaSlicer 2.0.0+win64 on 2020-04-24 at 20:51:05

; 

; external perimeters extrusion width = 0.45mm
; perimeters extrusion width = 0.45mm
; infill extrusion width = 0.45mm
; solid infill extrusion width = 0.45mm
; top infill extrusion width = 0.40mm
; first layer extrusion width = 0.42mm

M73 P0 R272
M73 Q0 S272
M201 X1000 Y1000 Z1000 E5000 ; sets maximum accelerations, mm/sec^2
M203 X200 Y200 Z12 E120 ; sets maximum feedrates, mm/sec
M204 P1250 R1250 T1250 ; sets acceleration (P, T) and retract acceleration (R), mm/sec^2
M205 X8.00 Y8.00 Z0.40 E1.50 ; sets the jerk limits, mm/sec
M205 S0 T0 ; sets the minimum extruding and travel feed rate, mm/sec
M107
M115 U3.8.1 ; tell printer latest fw version
G90 ; use absolute coordinates
M83 ; extruder relative mode
M104 S215 ; set extruder temp
M140 S60 ; set bed temp
M190 S60 ; wait for bed temp
M109 S215 ; wait for extruder temp
G28 W ; home all without mesh bed level
G80 ; mesh bed leveling
G1 Y-3.0 F1000.0 ; go outside print area
G92 E0.0
G1 X60.0 E9.0 F1000.0 ; intro line
M73 Q0 S272
M73 P0 R272
G1 X100.0 E12.5 F1000.0 ; intro line
G92 E0.0
M221 S95
M900 K30 ; Filament gcode
G21 ; set units to millimeters
G90 ; use absolute coordinates
M83 ; use relative distances for extrusion
;BEFORE_LAYER_CHANGE
G92 E0.0
;0.2


G1 E-0.80000 F2100.00000
G1 Z0.600 F10800.000
;AFTER_LAYER_CHANGE
;0.2
G1 X81.347 Y63.073
G1 Z0.200
G1 E0.80000 F2100.00000
M204 S1000
G1 F1200
G1 X82.066 Y62.184 E0.03587
G1 X83.044 Y61.366 E0.03997
G1 X84.109 Y60.792 E0.03792
G1 X85.279 Y60.433 E0.03838
G1 X86.444 Y60.313 E0.03673
G1 X163.504 Y60.311 E2.41614
G1 X164.708 Y60.431 E0.03795
G1 X165.866 Y60.781 E0.03792
G1 X166.936 Y61.353 E0.03804
G1 X167.864 Y62.112 E0.03758
G1 X168.642 Y63.056 E0.03838
G1 X169.209 Y64.112 E0.03758
G1 X169.565 Y65.272 E0.03804
G1 X169.685 Y66.386 E0.03513
G1 X169.688 Y143.547 E2.41935
G1 X169.568 Y144.715 E0.03681
G1 X169.220 Y145.862 E0.03758
G1 X168.653 Y146.927 E0.03781
G1 X167.934 Y147.816 E0.03587
G1 X166.953 Y148.636 E0.04009
G1 X165.884 Y149.211 E0.03804
G1 X164.710 Y149.569 E0.03849
G1 X163.508 Y149.688 E0.03787
G1 X86.453 Y149.688 E2.41602
G1 X85.285 Y149.568 E0.03681
G1 X84.138 Y149.220 E0.03758
G1 X83.073 Y148.653 E0.03781
G1 X82.181 Y147.931 E0.03598
G1 X81.364 Y146.953 E0.03997
G1 X80.789 Y145.884 E0.03804
G1 X80.431 Y144.710 E0.03849
G1 X80.312 Y143.508 E0.03787
G1 X80.312 Y66.453 E2.41602
G1 X80.432 Y65.285 E0.03681
G1 X80.780 Y64.138 E0.03758
G1 X81.319 Y63.126 E0.03593
G1 F8640
G1 X82.066 Y62.184 E-0.27776
G1 X83.044 Y61.366 E-0.29437
G1 X83.760 Y60.980 E-0.18788
G1 E-0.04000 F2100.00000
G1 Z0.800 F10800.000
G1 X101.664 Y128.497
G1 Z0.200
G1 E0.80000 F2100.00000
G1 F1200
G1 X102.475 Y128.411 E0.02560
G1 X103.361 Y128.501 E0.02790
G1 X104.174 Y128.768 E0.02683
G1 X104.914 Y129.198 E0.02682
G1 X105.546 Y129.771 E0.02677
G1 X106.046 Y130.461 E0.02672
G1 X106.391 Y131.240 E0.02672
G1 X106.568 Y132.074 E0.02672
G1 X106.568 Y132.926 E0.02672
G1 X106.391 Y133.760 E0.02672
G1 X106.046 Y134.539 E0.02672
G1 X105.546 Y135.229 E0.02673
G1 X104.906 Y135.808 E0.02704
G1 X104.155 Y136.241 E0.02720
G1 X103.345 Y136.502 E0.02667
G1 X102.500 Y136.590 E0.02665
G1 X101.655 Y136.502 E0.02665
G1 X100.846 Y136.241 E0.02665
G1 X100.107 Y135.817 E0.02671
G1 X99.469 Y135.246 E0.02683
G1 X98.965 Y134.557 E0.02677
G1 X98.615 Y133.777 E0.02682
G1 X98.431 Y132.906 E0.02791
G1 X98.431 Y132.088 E0.02565
G1 X98.617 Y131.217 E0.02792
G1 X98.969 Y130.438 E0.02681
G1 X99.474 Y129.749 E0.02677
G1 X100.111 Y129.181 E0.02677
G1 X100.852 Y128.757 E0.02677
G1 X101.606 Y128.515 E0.02485
G1 X101.722 Y128.874 F10800.000
G1 F1200
G1 X102.476 Y128.790 E0.02380
G1 X103.282 Y128.872 E0.02540
G1 X104.019 Y129.114 E0.02431
G1 X104.690 Y129.504 E0.02433
G1 X105.264 Y130.024 E0.02429
G1 X105.717 Y130.650 E0.02424
G1 X106.031 Y131.357 E0.02424
G1 X106.191 Y132.113 E0.02424
G1 X106.191 Y132.887 E0.02424
G1 X106.031 Y133.643 E0.02424
G1 X105.717 Y134.350 E0.02424
G1 X105.264 Y134.976 E0.02424
G1 X104.683 Y135.501 E0.02454
G1 X104.001 Y135.894 E0.02469
G1 X103.267 Y136.131 E0.02418
G1 X102.500 Y136.211 E0.02418
G1 X101.733 Y136.131 E0.02418
G1 X100.999 Y135.894 E0.02418
G1 X100.329 Y135.510 E0.02423
G1 X99.750 Y134.992 E0.02434
G1 X99.293 Y134.367 E0.02429
G1 X98.975 Y133.660 E0.02431
G1 X98.808 Y132.867 E0.02540
G1 X98.808 Y132.128 E0.02318
G1 X98.977 Y131.335 E0.02541
G1 X99.296 Y130.629 E0.02430
G1 X99.754 Y130.004 E0.02428
G1 X100.332 Y129.489 E0.02428
G1 X101.004 Y129.104 E0.02429
G1 X101.664 Y128.892 E0.02173
G1 X101.844 Y128.493 F10800.000
G1 F8640
G1 X102.476 Y128.790 E-0.18889
G1 X103.282 Y128.872 E-0.18705
G1 X104.019 Y129.114 E-0.17902
G1 X104.690 Y129.504 E-0.17921
G1 X104.773 Y129.579 E-0.02583
G1 E-0.04000 F2100.00000
G1 Z0.800 F10800.000
G1 X121.913 Y131.913
G1 Z0.200
G1 E0.80000 F2100.00000
G1 F1200
G1 X149.087 Y131.913 E0.85203
G1 X149.087 Y136.087 E0.13088
G1 X121.913 Y136.087 E0.85203
G1 X121.913 Y131.973 E0.12900
G1 X122.290 Y132.290 F10800.000
G1 F1200
G1 X148.710 Y132.290 E0.82838
G1 X148.710 Y135.710 E0.10723
G1 X122.290 Y135.710 E0.82838
G1 X122.290 Y132.350 E0.10535
G1 X122.105 Y131.935 F10800.000
G1 F8640
G1 X125.581 Y132.343 E-0.76000
G1 E-0.04000 F2100.00000
G1 Z0.800 F10800.000
G1 X122.290 Y146.913
G1 Z0.200
G1 E0.80000 F2100.00000
G1 F1200
G1 X86.529 Y146.913 E1.12127
G1 X85.835 Y146.845 E0.02187
G1 X85.195 Y146.651 E0.02096
G1 X84.605 Y146.335 E0.02096
G1 X84.089 Y145.911 E0.02096
G1 X83.665 Y145.395 E0.02096
G1 X83.349 Y144.805 E0.02096
G1 X83.155 Y144.165 E0.02096
G1 X83.087 Y143.471 E0.02187
G1 X83.087 Y66.529 E2.41247
G1 X83.155 Y65.835 E0.02187
G1 X83.349 Y65.195 E0.02096
G1 X83.665 Y64.605 E0.02096
G1 X84.089 Y64.089 E0.02096
G1 X84.605 Y63.665 E0.02096
G1 X85.195 Y63.349 E0.02096
G1 X85.835 Y63.155 E0.02096
G1 X86.529 Y63.087 E0.02187
G1 X163.476 Y63.088 E2.41264
G1 X164.165 Y63.155 E0.02171
G1 X164.805 Y63.349 E0.02096
G1 X165.395 Y63.665 E0.02096
G1 X165.911 Y64.089 E0.02096
G1 X166.335 Y64.605 E0.02096
G1 X166.651 Y65.195 E0.02096
G1 X166.845 Y65.835 E0.02096
G1 X166.913 Y66.529 E0.02187
G1 X166.913 Y143.471 E2.41247
G1 X166.845 Y144.165 E0.02187
G1 X166.651 Y144.805 E0.02096
G1 X166.335 Y145.395 E0.02096
G1 X165.911 Y145.911 E0.02096
G1 X165.395 Y146.335 E0.02096
G1 X164.805 Y146.651 E0.02096
G1 X164.165 Y146.845 E0.02096
G1 X163.471 Y146.913 E0.02187
G1 X122.350 Y146.913 E1.28933
G1 X122.350 Y147.290 F10800.000
G1 F1200
G1 X86.510 Y147.290 E1.12373
G1 X85.761 Y147.216 E0.02361
G1 X85.050 Y147.001 E0.02329
G1 X84.395 Y146.650 E0.02329
G1 X83.821 Y146.179 E0.02329
G1 X83.350 Y145.605 E0.02329
G1 X82.999 Y144.950 E0.02329
G1 X82.784 Y144.239 E0.02329
G1 X82.710 Y143.490 E0.02361
G1 X82.710 Y66.510 E2.41363
G1 X82.784 Y65.761 E0.02361
G1 X82.999 Y65.050 E0.02329
G1 X83.350 Y64.395 E0.02329
G1 X83.821 Y63.821 E0.02329
G1 X84.395 Y63.350 E0.02329
G1 X85.050 Y62.999 E0.02329
G1 X85.761 Y62.784 E0.02329
G1 X86.510 Y62.710 E0.02361
G1 X163.495 Y62.711 E2.41380
G1 X164.239 Y62.784 E0.02345
G1 X164.950 Y62.999 E0.02329
G1 X165.605 Y63.350 E0.02329
G1 X166.179 Y63.821 E0.02329
G1 X166.650 Y64.395 E0.02329
G1 X167.001 Y65.050 E0.02329
G1 X167.216 Y65.761 E0.02329
G1 X167.290 Y66.510 E0.02361
G1 X167.290 Y143.490 E2.41363
M73 Q0 S271
M73 P0 R271
G1 X167.216 Y144.239 E0.02361
G1 X167.001 Y144.950 E0.02329
G1 X166.650 Y145.605 E0.02329
G1 X166.179 Y146.179 E0.02329
G1 X165.605 Y146.650 E0.02329
G1 X164.950 Y147.001 E0.02329
G1 X164.239 Y147.216 E0.02329
G1 X163.490 Y147.290 E0.02361
G1 X122.410 Y147.290 E1.28802
G1 X122.150 Y146.944 F10800.000
G1 X122.218 Y146.800
G1 F1200
G1 X106.686 Y131.268 E0.68953
G1 X106.830 Y131.945 E0.02174
G1 X121.515 Y146.630 E0.65192
G1 X120.981 Y146.630 E0.01676
G1 X106.851 Y132.500 E0.62729
G1 X106.837 Y133.021 E0.01634
G1 X120.447 Y146.630 E0.60420
G1 X119.913 Y146.630 E0.01676
G1 X106.744 Y133.461 E0.58464
G1 X106.642 Y133.893 E0.01393
G1 X119.379 Y146.630 E0.56547
G1 X118.845 Y146.630 E0.01676
G1 X106.478 Y134.263 E0.54905
G1 X106.314 Y134.633 E0.01270
G1 X118.311 Y146.630 E0.53263
G1 X117.777 Y146.630 E0.01676
G1 X106.097 Y134.950 E0.51853
G1 X105.873 Y135.260 E0.01200
G1 X117.243 Y146.630 E0.50478
G1 X116.709 Y146.630 E0.01676
G1 X105.622 Y135.542 E0.49224
G1 X105.341 Y135.796 E0.01187
G1 X116.175 Y146.630 E0.48099
G1 X115.642 Y146.630 E0.01676
G1 X105.058 Y136.047 E0.46985
G1 X104.719 Y136.242 E0.01227
G1 X115.108 Y146.630 E0.46119
G1 X114.574 Y146.630 E0.01676
G1 X104.380 Y136.437 E0.45253
G1 X104.270 Y136.500 E0.00400
G1 X103.998 Y136.588 E0.00897
G1 X114.040 Y146.630 E0.44581
G1 X113.506 Y146.630 E0.01676
G1 X103.594 Y136.719 E0.44002
G1 X103.404 Y136.780 E0.00628
G1 X103.149 Y136.807 E0.00806
G1 X112.972 Y146.630 E0.43611
G1 X112.438 Y146.630 E0.01676
G1 X102.665 Y136.857 E0.43386
G1 X102.500 Y136.875 E0.00522
G1 X102.108 Y136.834 E0.01239
G1 X111.904 Y146.630 E0.43492
G1 X111.370 Y146.630 E0.01676
G1 X101.484 Y136.744 E0.43889
G1 X100.675 Y136.469 E0.02684
G1 X110.836 Y146.630 E0.45112
G1 X110.302 Y146.630 E0.01676
G1 X83.370 Y119.698 E1.19567
G1 X83.370 Y119.164 E0.01676
G1 X98.567 Y134.361 E0.67467
G1 X98.344 Y133.865 E0.01705
G1 X98.274 Y133.534 E0.01062
G1 X83.370 Y118.630 E0.66169
G1 X83.370 Y118.096 E0.01676
G1 X98.148 Y132.874 E0.65609
G1 X98.148 Y132.340 E0.01676
G1 X83.370 Y117.562 E0.65609
G1 X83.370 Y117.028 E0.01676
G1 X98.193 Y131.851 E0.65806
G1 X98.286 Y131.411 E0.01412
G1 X83.370 Y116.494 E0.66222
G1 X83.370 Y115.960 E0.01676
G1 X98.406 Y130.997 E0.66754
G1 X98.572 Y130.629 E0.01267
G1 X83.370 Y115.426 E0.67491
G1 X83.370 Y114.892 E0.01676
G1 X98.744 Y130.266 E0.68252
G1 X98.970 Y129.958 E0.01199
G1 X83.370 Y114.358 E0.69255
G1 X83.370 Y113.825 E0.01676
G1 X99.196 Y129.650 E0.70258
G1 X99.263 Y129.558 E0.00359
G1 X99.461 Y129.382 E0.00832
G1 X83.370 Y113.291 E0.71436
G1 X83.370 Y112.757 E0.01676
G1 X99.743 Y129.130 E0.72689
G1 X99.944 Y128.950 E0.00847
G1 X100.042 Y128.895 E0.00352
G1 X83.370 Y112.223 E0.74014
G1 X83.370 Y111.689 E0.01676
G1 X100.381 Y128.700 E0.75522
G1 X100.721 Y128.506 E0.01228
G1 X83.370 Y111.155 E0.77030
G1 X83.370 Y110.621 E0.01676
G1 X101.122 Y128.373 E0.78811
G1 X101.526 Y128.244 E0.01333
G1 X83.370 Y110.087 E0.80606
G1 X83.370 Y109.553 E0.01676
G1 X101.994 Y128.178 E0.82683
G1 X102.478 Y128.127 E0.01527
G1 X83.370 Y109.019 E0.84830
G1 X83.370 Y108.485 E0.01676
G1 X103.072 Y128.188 E0.87469
G1 X103.420 Y128.223 E0.01097
G1 X103.750 Y128.331 E0.01090
G1 X83.370 Y107.952 E0.90476
G1 X83.370 Y107.418 E0.01676
G1 X122.582 Y146.630 E1.74084
G1 X123.116 Y146.630 E0.01676
G1 X83.370 Y106.884 E1.76454
G1 X83.370 Y106.350 E0.01676
G1 X123.650 Y146.630 E1.78824
G1 X124.184 Y146.630 E0.01676
G1 X83.370 Y105.816 E1.81195
M73 Q0 S270
M73 P0 R270
G1 X83.370 Y105.282 E0.01676
G1 X124.718 Y146.630 E1.83565
G1 X125.252 Y146.630 E0.01676
G1 X83.370 Y104.748 E1.85935
G1 X83.370 Y104.214 E0.01676
G1 X125.786 Y146.630 E1.88306
G1 X126.320 Y146.630 E0.01676
G1 X83.370 Y103.680 E1.90676
G1 X83.370 Y103.146 E0.01676
G1 X126.854 Y146.630 E1.93046
G1 X127.388 Y146.630 E0.01676
G1 X83.370 Y102.612 E1.95417
G1 X83.370 Y102.079 E0.01676
G1 X127.921 Y146.630 E1.97787
G1 X128.455 Y146.630 E0.01676
G1 X83.370 Y101.545 E2.00157
G1 X83.370 Y101.011 E0.01676
G1 X128.989 Y146.630 E2.02528
G1 X129.523 Y146.630 E0.01676
G1 X83.370 Y100.477 E2.04898
G1 X83.370 Y99.943 E0.01676
G1 X130.057 Y146.630 E2.07268
G1 X130.591 Y146.630 E0.01676
G1 X83.370 Y99.409 E2.09638
G1 X83.370 Y98.875 E0.01676
G1 X131.125 Y146.630 E2.12009
G1 X131.659 Y146.630 E0.01676
G1 X83.370 Y98.341 E2.14379
G1 X83.370 Y97.807 E0.01676
G1 X132.362 Y146.800 E2.17503
G1 F8640
G1 X130.035 Y144.472 E-0.76000
G1 E-0.04000 F2100.00000
G1 Z0.800 F10800.000
G1 X122.297 Y136.200
G1 Z0.200
G1 E0.80000 F2100.00000
G1 F1200
G1 X132.727 Y146.630 E0.46304
G1 X133.261 Y146.630 E0.01676
G1 X123.000 Y136.370 E0.45550
G1 X123.534 Y136.370 E0.01676
G1 X133.795 Y146.630 E0.45550
G1 X134.328 Y146.630 E0.01676
G1 X124.068 Y136.370 E0.45550
G1 X124.602 Y136.370 E0.01676
G1 X134.862 Y146.630 E0.45550
G1 X135.396 Y146.630 E0.01676
G1 X125.136 Y136.370 E0.45550
G1 X125.670 Y136.370 E0.01676
G1 X135.930 Y146.630 E0.45550
G1 X136.464 Y146.630 E0.01676
G1 X126.204 Y136.370 E0.45550
G1 X126.738 Y136.370 E0.01676
G1 X136.998 Y146.630 E0.45550
G1 X137.532 Y146.630 E0.01676
G1 X127.272 Y136.370 E0.45550
G1 X127.806 Y136.370 E0.01676
G1 X138.066 Y146.630 E0.45550
G1 X138.600 Y146.630 E0.01676
G1 X128.339 Y136.370 E0.45550
G1 X128.873 Y136.370 E0.01676
G1 X139.134 Y146.630 E0.45550
G1 X139.668 Y146.630 E0.01676
G1 X129.407 Y136.370 E0.45550
G1 X129.941 Y136.370 E0.01676
G1 X140.201 Y146.630 E0.45550
M73 Q1 S269
M73 P1 R269
G1 X140.735 Y146.630 E0.01676
G1 X130.475 Y136.370 E0.45550
G1 X131.009 Y136.370 E0.01676
G1 X141.269 Y146.630 E0.45550
G1 X141.803 Y146.630 E0.01676
G1 X131.543 Y136.370 E0.45550
G1 X132.077 Y136.370 E0.01676
G1 X142.337 Y146.630 E0.45550
G1 X142.871 Y146.630 E0.01676
G1 X132.611 Y136.370 E0.45550
G1 X133.145 Y136.370 E0.01676
G1 X143.405 Y146.630 E0.45550
G1 X143.939 Y146.630 E0.01676
G1 X133.679 Y136.370 E0.45550
G1 X134.213 Y136.370 E0.01676
G1 X144.473 Y146.630 E0.45550
G1 X145.007 Y146.630 E0.01676
G1 X134.746 Y136.370 E0.45550
G1 X135.280 Y136.370 E0.01676
G1 X145.541 Y146.630 E0.45550
G1 X146.075 Y146.630 E0.01676
G1 X135.814 Y136.370 E0.45550
G1 X136.348 Y136.370 E0.01676
G1 X146.608 Y146.630 E0.45550
G1 X147.142 Y146.630 E0.01676
G1 X136.882 Y136.370 E0.45550
G1 X137.416 Y136.370 E0.01676
G1 X147.676 Y146.630 E0.45550
G1 X148.210 Y146.630 E0.01676
G1 X137.950 Y136.370 E0.45550
G1 X138.484 Y136.370 E0.01676
G1 X148.744 Y146.630 E0.45550
G1 X149.278 Y146.630 E0.01676
G1 X139.018 Y136.370 E0.45550
G1 X139.552 Y136.370 E0.01676
G1 X149.812 Y146.630 E0.45550
G1 X150.346 Y146.630 E0.01676
G1 X140.086 Y136.370 E0.45550
G1 X140.619 Y136.370 E0.01676
G1 X150.880 Y146.630 E0.45550
G1 X151.414 Y146.630 E0.01676
G1 X141.153 Y136.370 E0.45550
G1 X141.687 Y136.370 E0.01676
G1 X151.948 Y146.630 E0.45550
G1 X152.481 Y146.630 E0.01676
G1 X142.221 Y136.370 E0.45550
G1 X142.755 Y136.370 E0.01676
G1 X153.015 Y146.630 E0.45550
G1 X153.549 Y146.630 E0.01676
G1 X143.289 Y136.370 E0.45550
G1 X143.823 Y136.370 E0.01676
G1 X154.083 Y146.630 E0.45550
G1 X154.617 Y146.630 E0.01676
G1 X144.357 Y136.370 E0.45550
G1 X144.891 Y136.370 E0.01676
G1 X155.151 Y146.630 E0.45550
G1 X155.685 Y146.630 E0.01676
G1 X145.425 Y136.370 E0.45550
G1 X145.959 Y136.370 E0.01676
G1 X156.219 Y146.630 E0.45550
G1 X156.753 Y146.630 E0.01676
G1 X146.492 Y136.370 E0.45550
G1 X147.026 Y136.370 E0.01676
G1 X157.287 Y146.630 E0.45550
G1 X157.821 Y146.630 E0.01676
G1 X147.560 Y136.370 E0.45550
G1 X148.094 Y136.370 E0.01676
G1 X158.354 Y146.630 E0.45550
G1 X158.888 Y146.630 E0.01676
G1 X148.628 Y136.370 E0.45550
G1 X149.162 Y136.370 E0.01676
G1 X159.422 Y146.630 E0.45550
G1 X159.956 Y146.630 E0.01676
G1 X149.370 Y136.044 E0.46998
G1 X149.370 Y135.510 E0.01676
G1 X160.490 Y146.630 E0.49368
G1 X161.024 Y146.630 E0.01676
G1 X149.370 Y134.976 E0.51739
G1 X149.370 Y134.442 E0.01676
G1 X161.558 Y146.630 E0.54109
G1 X162.092 Y146.630 E0.01676
G1 X149.370 Y133.908 E0.56479
G1 X149.370 Y133.374 E0.01676
G1 X162.626 Y146.630 E0.58850
G1 X163.160 Y146.630 E0.01676
G1 X149.370 Y132.840 E0.61220
G1 X149.370 Y132.306 E0.01676
G1 X163.828 Y146.764 E0.64185
G1 F8640
G1 X161.500 Y144.437 E-0.76000
G1 E-0.04000 F2100.00000
G1 Z0.800 F10800.000
G1 X121.800 Y135.703
G1 Z0.200
G1 E0.80000 F2100.00000
G1 F1200
G1 X83.370 Y97.273 E1.70610
G1 X83.370 Y96.739 E0.01676
G1 X121.630 Y135.000 E1.69856
G1 X121.630 Y134.466 E0.01676
G1 X83.370 Y96.205 E1.69856
G1 X83.370 Y95.672 E0.01676
G1 X121.630 Y133.932 E1.69856
G1 X121.630 Y133.398 E0.01676
G1 X83.370 Y95.138 E1.69856
G1 X83.370 Y94.604 E0.01676
G1 X121.630 Y132.864 E1.69856
G1 X121.630 Y132.330 E0.01676
G1 X83.370 Y94.070 E1.69856
G1 X83.370 Y93.536 E0.01676
G1 X121.630 Y131.796 E1.69856
G1 X121.630 Y131.630 E0.00521
G1 X121.998 Y131.630 E0.01155
G1 X83.370 Y93.002 E1.71490
M73 Q1 S268
M73 P1 R268
G1 X83.370 Y92.468 E0.01676
G1 X122.532 Y131.630 E1.73860
